public/icons/search_icon.svg

<svg width="15" height="15" viewBox="0 0 15 15" fill="none" xmlns="http://www.w3.org/2000/svg">
<path d="M14.1501 13.3175L11.64 10.8075C13.743 8.16178 13.336 4.29498 10.6903 2.19199C8.04459 0.0889921 4.1778 0.563862 2.0748 3.14173C-0.0281954 5.78743 0.446675 9.65423 3.02454 11.7572C5.26321 13.521 8.45163 13.521 10.6903 11.7572L13.2003 14.2673C13.4717 14.5386 13.8787 14.5386 14.1501 14.2673C14.4214 13.9959 14.4214 13.5889 14.1501 13.3175ZM6.89134 11.7572C4.24563 11.7572 2.14264 9.65423 2.14264 7.00853C2.14264 4.36282 4.24563 2.25983 6.89134 2.25983C9.53704 2.25983 11.64 4.36282 11.64 7.00853C11.64 9.65423 9.53704 11.7572 6.89134 11.7572Z" fill="white"/>
</svg>

<svg xmlns="http://www.w3.org/2000/svg" width="15" height="15" fill="none"><path fill="#fff" d="m14.15 13.318-2.51-2.51c2.103-2.646 1.696-6.513-.95-8.616C8.045.089 4.178.564 2.075 3.142c-2.103 2.645-1.628 6.512.95 8.615a6.214 6.214 0 0 0 7.665 0l2.51 2.51a.656.656 0 0 0 .95 0 .656.656 0 0 0 0-.95Zm-7.259-1.56a4.72 4.72 0 0 1-4.748-4.75A4.72 4.72 0 0 1 6.89 2.26a4.72 4.72 0 0 1 4.749 4.749 4.72 4.72 0 0 1-4.749 4.748Z"/></svg>
